**kern	**kern	**dynam
*part1	*part1	*part1
*staff2	*staff1	*
*I"Piano	*	*
*clefF4	*clefG2	*
*k[b-e-a-d-]	*k[b-e-a-d-]	*
=1	=1	=1
*^	*^	*
*	*	*	*^	*
8rF	2.EE- 2.E-	2.ee-)	2.d-	(2a-/	.
([8B-	.	.	.	.	.
2B-]) 2e-	.	.	.	.	.
.	.	.	.	4g/)	.
*	*	*	*v	*v	*
=	=	=	=	=
(2.G-X	[2.AA-	(2a-	2.c 2.e-	???
.	.	4an	.	.
*	*	*v	*v	*
=	=	=	=
4F	2.AA-_	2d- 2b-	<
2F-X	.	.	.
.	.	4dn 4bn	.
=	=	=	=
4E-	2.AA-_	2e- 2cc	[ >
2F-X	.	.	.
.	.	4dn 4bn	.
=	=	=	=
4E-	2.AA-]	2e- 2cc	.
2F-X)	.	.	.
.	.	4e-- 4cc-X	]
=	=	=	=
(2.Fn	[2.AA-	2.d-X 2.b-	???
=	=	=	=
2.G-X	2.AA-_	2.c 2.b--	.
=	=	=	=
*	*	*^	*
2F-X	2.AA-]	2d- 2a-	2ryy	.
4E-)	.	4d-) 4b-	8gL	.
.	.	.	8g-XJ	.
*v	*v	*	*	*
*	*v	*v	*
=	=	=
*-	*-	*-
!!!system-decoration: {(s1,s2)}
